X: 1
T: Tommy Gunn's
Z: Kenny
S: https://thesession.org/tunes/2753#setting2753
R: reel
M: 4/4
L: 1/8
K: Dmaj
D2 DE FEFA | DFAF EDB,E | D2 DE FEFA | BdAF EGFE|
D2 DE FEFA | DFAF EDB,E | D2 DE FEFA | Bd AF EF D2|
|:d2 dc dAFA | DFAd egfe | d2 dc dAFA | BdAF EF D2 :|
a2 fa g2 eg | fedf edBd | a2 af g2 ge | fedf ecdf|
a2 fa g2 eg | fedf edBd | dfaf g2 eg | fgfe dcdB|
Adfd e2 ge | fedf edBd | Adfd efge | fedf e2 dB|
Adfd e2 ge | fedf edBd | Adfd efge | fdec dBAF|
